X: 42317
T: Wednesday Visit
R: jig
M: 6/8
K: Adorian
ed|:[c2E2]A A (3cBA|EAB [cF]BA|(3BcB G GFG|Bcd gdB|
(3cdc A AcA|EAB caf|gfe dBe|1 A (3cBA Aed:|2 A (3cBA A2d|
|:eaa bag|aAB cde|dBG GFG|1 Bcd ged|
eaa bag|(3ega f ged|(3efg e dBe|ABA A (3Bcd:|
[2 BAB GAB|[c2E2A,2] A [BDG,] AG|EDE G (3Bcd|ege dBe|ABA [A,3a3A3E3]||

